icons/spotify-line.svg

<svg viewBox="0 0 24 24" fill="currentColor" xmlns="http://www.w3.org/2000/svg"><path d="M12.001 2C17.551 2 22.001 6.5 22.001 12C22.001 17.5 17.501 22 12.001 22C6.50098 22 2.00098 17.5 2.00098 12C2.00098 6.5 6.50098 2 12.001 2ZM12.001 4C7.60555 4 4.00098 7.60457 4.00098 12C4.00098 16.3954 7.60555 20 12.001 20C16.3964 20 20.001 16.3954 20.001 12C20.001 7.58572 16.4276 4 12.001 4ZM15.751 16.65C13.401 15.2 10.451 14.8992 6.95014 15.6992C6.60181 15.8008 6.30098 15.55 6.20098 15.25C6.10098 14.8992 6.35098 14.6 6.65098 14.5C10.451 13.6492 13.751 14 16.351 15.6C16.701 15.75 16.7501 16.1492 16.6018 16.45C16.4018 16.7492 16.0518 16.85 15.751 16.65ZM16.7501 13.95C14.051 12.3 9.95098 11.8 6.80098 12.8C6.40181 12.9 5.95098 12.7 5.85098 12.3C5.75098 11.9 5.95098 11.4492 6.35098 11.3492C10.001 10.25 14.501 10.8008 17.601 12.7C17.9018 12.8508 18.051 13.35 17.8018 13.7C17.551 14.05 17.101 14.2 16.7501 13.95ZM6.30098 9.75083C5.80098 9.9 5.30098 9.6 5.15098 9.15C5.00098 8.64917 5.30098 8.15 5.75098 7.99917C9.30098 6.94917 15.151 7.14917 18.8518 9.35C19.301 9.6 19.451 10.2 19.201 10.65C18.9518 11.0008 18.351 11.1492 17.9018 10.9C14.701 9 9.35098 8.8 6.30098 9.75083Z"/></svg>

<svg xmlns="http://www.w3.org/2000/svg" viewBox="0 0 24 24">
    <g>
        <path fill="none" d="M0 0h24v24H0z"/>
        <path fill-rule="nonzero" d="M12 2c5.55 0 10 4.5 10 10s-4.5 10-10 10S2 17.5 2 12 6.5 2 12 2zm0 2c-4.395 0-8 3.605-8 8s3.605 8 8 8 8-3.605 8-8c0-4.414-3.573-8-8-8zm3.75 12.65c-2.35-1.45-5.3-1.75-8.8-.95-.35.1-.65-.15-.75-.45-.1-.35.15-.65.45-.75 3.8-.85 7.1-.5 9.7 1.1.35.15.4.55.25.85-.2.3-.55.4-.85.2zm1-2.7c-2.7-1.65-6.8-2.15-9.95-1.15-.4.1-.85-.1-.95-.5-.1-.4.1-.85.5-.95 3.65-1.1 8.15-.55 11.25 1.35.3.15.45.65.2 1s-.7.5-1.05.25zM6.3 9.75c-.5.15-1-.15-1.15-.6-.15-.5.15-1 .6-1.15 3.55-1.05 9.4-.85 13.1 1.35.45.25.6.85.35 1.3-.25.35-.85.5-1.3.25C14.7 9 9.35 8.8 6.3 9.75z"/>
    </g>
</svg>
